icons/tv-2-fill.svg

<svg xmlns="http://www.w3.org/2000/svg" width="24" height="24" fill="none"><g clip-path="url(#a)"><g><path fill="#121212" d="M2 4C2 3.448 2.455 3 2.992 3H21.008C21.556 3 22 3.445 22 4V18C22 18.552 21.545 19 21.008 19H2.992C2.86113 18.9997 2.7316 18.9736 2.61084 18.9232C2.49008 18.8727 2.38047 18.7989 2.2883 18.706C2.19614 18.6131 2.12322 18.5029 2.07375 18.3818C2.02427 18.2606 1.99921 18.1309 2 18V4ZM5 20H19V22H5V20Z"/></g></g><defs><clipPath id="a"><rect width="24" height="24" fill="white"/></clipPath></defs></svg>

<svg width="24" height="24" fill="none" xmlns="http://www.w3.org/2000/svg"><g clip-path="url(#a)"><path d="M2 4c0-.552.455-1 .992-1h18.016c.548 0 .992.445.992 1v14c0 .552-.455 1-.992 1H2.992A.996.996 0 0 1 2 18V4Zm3 16h14v2H5v-2Z" /></g><defs><clipPath id="a"><path fill="#fff" d="M0 0h24v24H0z"/></clipPath></defs></svg>
